X: 193
T:Drunk I Was Last Night. HA.192
M:C
L:1/4
Q:100
C:"J.A."
S:Henry Atkinson's original MS,Hartburn,N'umberland,1694.
O:England
A:Hartburn,Northumberland
N:"="=double slash; u & v indicate bowing up and down.NBr. cf Pills to
N:Purge Melancholy,1719..CGP.
H:1/4
Z:vmp.Neil Brookes, Jan.2004
K:Gmin
gccd|eddG|Gc (d/2e/2)(d/2c/2)|"="B3B|!
cGGA|BFFG|_AG/2A/2("="F3/2E/2F/2)|.G4:|!
|:GBB"u"c/2"u"d/2|eBBe|dff"u"g/2"u"a/2|bffb|!
gbfb|gbfb|efBd|"v"e3g|!
egdf|ceBd|ce(d/2e/2)(d/2c/2)|"="B3g|!
egdf|ceBd|ceG"="B|"v"c4|]
